assets/cors.svg

<svg viewBox="0 0 512 512"
  xmlns="http://www.w3.org/2000/svg">
  <path d="m32 16h352c17.671875 0 32 14.328125 32 32v432c0 17.671875-14.328125 32-32 32h-352c-17.671875 0-32-14.328125-32-32v-432c0-17.671875 14.328125-32 32-32zm0 0" fill="#ecce93"/>
  <path d="m32 374.625v-326.625h352v432h-246.625zm0 0" fill="#efefef"/>
  <path d="m137.375 374.625v105.375l-105.375-105.375zm0 0" fill="#e76e54"/>
  <path d="m128 64v-64h160v64c0 17.671875-14.328125 32-32 32h-96c-17.671875 0-32-14.328125-32-32zm0 0" fill="#e76e54"/>
  <path d="m512 368c0 79.527344-64.472656 144-144 144s-144-64.472656-144-144 64.472656-144 144-144 144 64.472656 144 144zm0 0" fill="#48c8ef"/>
  <path d="m335.007812 429.648438-31.007812-31.023438c-6.246094-6.25-6.246094-16.378906 0-22.625s16.375-6.246094 22.625 0l10.367188 10.351562 72.464843-60.398437c6.789063-5.664063 16.886719-4.746094 22.542969 2.046875 5.664062 6.789062 4.746094 16.886719-2.046875 22.542969zm0 0" fill="#fff"/>
  <g fill="#77959e">
    <path d="m176 128h128c8.835938 0 16 7.164062 16 16s-7.164062 16-16 16h-128c-8.835938 0-16-7.164062-16-16s7.164062-16 16-16zm0 0"/>
    <path d="m96 128h32v32h-32zm0 0"/>
    <path d="m96 192h32v32h-32zm0 0"/>
    <path d="m96 256h32v32h-32zm0 0"/>
    <path d="m96 320h32v32h-32zm0 0"/>
    <path d="m176 192h96c8.835938 0 16 7.164062 16 16s-7.164062 16-16 16h-96c-8.835938 0-16-7.164062-16-16s7.164062-16 16-16zm0 0"/>
    <path d="m176 256h32c8.835938 0 16 7.164062 16 16s-7.164062 16-16 16h-32c-8.835938 0-16-7.164062-16-16s7.164062-16 16-16zm0 0"/>
  </g>
</svg>

<svg viewBox="0 0 512 512" xmlns="http://www.w3.org/2000/svg"><path d="M32 16h352c17.672 0 32 14.328 32 32v432c0 17.672-14.328 32-32 32H32c-17.672 0-32-14.328-32-32V48c0-17.672 14.328-32 32-32zm0 0" fill="#ecce93"/><path d="M32 374.625V48h352v432H137.375zm0 0" fill="#efefef"/><path d="M137.375 374.625V480L32 374.625zm0 0M128 64V0h160v64c0 17.672-14.328 32-32 32h-96c-17.672 0-32-14.328-32-32zm0 0" fill="#e76e54"/><path d="M512 368c0 79.527-64.473 144-144 144s-144-64.473-144-144 64.473-144 144-144 144 64.473 144 144zm0 0" fill="#48c8ef"/><path d="M335.008 429.648L304 398.625c-6.246-6.25-6.246-16.379 0-22.625s16.375-6.246 22.625 0l10.367 10.352 72.465-60.399c6.79-5.664 16.887-4.746 22.543 2.047 5.664 6.79 4.746 16.887-2.047 22.543zm0 0" fill="#fff"/><g fill="#77959e"><path d="M176 128h128c8.836 0 16 7.164 16 16s-7.164 16-16 16H176c-8.836 0-16-7.164-16-16s7.164-16 16-16zm0 0M96 128h32v32H96zm0 0M96 192h32v32H96zm0 0M96 256h32v32H96zm0 0M96 320h32v32H96zm0 0M176 192h96c8.836 0 16 7.164 16 16s-7.164 16-16 16h-96c-8.836 0-16-7.164-16-16s7.164-16 16-16zm0 0M176 256h32c8.836 0 16 7.164 16 16s-7.164 16-16 16h-32c-8.836 0-16-7.164-16-16s7.164-16 16-16zm0 0"/></g></svg>
